svg/pwid_outline.svg

<svg width="48" height="48" viewBox="0 0 48 48" fill="none" xmlns="http://www.w3.org/2000/svg">
<path d="M4 4V4.1543V5.72458V6.99996V31.6407L25.1717 43.0155L26.1947 43.7985C26.3367 43.9065 26.3457 43.9185 26.4507 43.9995H43.9995V35.8196C43.4825 35.4476 43.0515 35.2776 42.5325 35.2416C42.3485 35.2286 41.3505 35.3376 40.3135 35.4836C37.4086 35.8916 37.5296 35.9276 34.7476 33.8566L32.9706 32.5326L10.6879 14.6459L7.66405 15.3009C7.18696 15.4039 6.72757 15.1339 6.63277 14.6949C6.53847 14.2569 6.84496 13.8219 7.32226 13.7189L9.06044 13.3419L7.45696 12.0509C5.30578 10.4529 5.41208 10.8649 5.22268 7.88275L5.26168 4L5.25588 4.0078V4H5.00589H4ZM4.51759 4.51759L4.73829 4.52539L4.70899 7.88665L4.84569 9.68543C4.86929 10.4509 5.29818 11.0519 5.93158 11.5699L7.89835 13.0699L7.17186 13.2339C5.56718 13.4469 5.73638 16.1258 7.70505 15.8179L10.5529 15.1989L21.7008 24.1477L32.4296 32.7456L35.3686 34.9546L36.7286 35.8416C37.1746 36.1116 37.8626 36.2606 39.0366 36.1676L41.0305 35.9056L42.3235 35.7636C42.7185 35.7416 43.1035 35.8416 43.4785 36.0916L43.4855 43.4875L26.7707 43.4855L25.7437 42.8115C25.5367 42.6385 25.3307 42.4855 25.1307 42.4115L21.1048 40.2455L16.6698 37.8766L11.5269 35.1036L4.51369 31.3277C4.51369 27.3547 4.51159 30.6037 4.51559 26.6327L4.51759 4.51799V4.51759ZM26.6633 5.36328C26.5013 5.40668 26.4073 5.57678 26.4523 5.73828L26.7823 6.96476L25.4583 7.32226L23.7674 7.78115L15.9035 9.91013C14.9815 10.1599 14.3905 11.0139 14.4425 11.9299C14.3995 11.9299 14.3455 11.9289 14.3025 11.9389C13.9895 12.0239 13.7975 12.3079 13.7985 12.6169L7.69295 14.2709C7.53066 14.3149 7.43536 14.4809 7.48006 14.6429C7.52236 14.8059 7.69355 14.8939 7.85505 14.8499L13.9505 13.2009C14.1015 13.4859 14.4225 13.6489 14.7455 13.5619C14.7905 13.5549 14.8365 13.5149 14.8765 13.4959C15.3005 14.2939 16.2294 14.7189 17.1364 14.4769L25.0013 12.3459L26.6923 11.8889L28.0193 11.5309L28.3513 12.7579C28.3933 12.9219 28.5663 13.0109 28.7283 12.9669C28.8893 12.9229 28.9833 12.7589 28.9383 12.5979L28.6063 11.3689L28.2353 9.99402L31.8953 9.00384L32.0772 9.68153C32.1242 9.86393 32.2962 9.97203 32.4602 9.92573C32.6222 9.88233 32.7142 9.70133 32.6652 9.52143L31.8083 6.34767C31.7933 6.30487 31.7753 6.25667 31.7453 6.22657L31.7413 6.23237C31.7033 6.18017 31.6553 6.14147 31.5993 6.11907C31.5423 6.09677 31.4813 6.08997 31.4213 6.10547C31.2593 6.14927 31.1673 6.32977 31.2163 6.50977L31.4563 7.39646L27.7963 8.38664L27.3703 6.80657L27.0363 5.57808C26.9943 5.41438 26.8213 5.32428 26.6633 5.36328ZM26.9403 7.54686L27.2123 8.54684L24.1443 9.37883L23.8724 8.37884L26.9403 7.54686ZM31.6143 7.98435L31.7333 8.42184L28.0733 9.41203L27.9543 8.97454L31.6143 7.98435ZM23.2884 8.53514L24.2083 11.9239L22.9584 12.2619L21.5074 9.01364L21.5284 9.00974L21.7244 8.95694L21.9014 9.61713C21.9444 9.78083 22.1154 9.86833 22.2764 9.82413C22.4384 9.78083 22.5314 9.61693 22.4874 9.45503L22.3104 8.79484L23.2884 8.53514ZM21.1444 9.11714L22.5934 12.3629L22.4464 12.3999L17.1104 13.8459C16.3034 14.0639 15.4805 13.5919 15.2615 12.7849L15.2375 12.7029L15.2005 12.5429L15.1735 12.4199L15.1425 12.2969C14.9235 11.4899 15.3955 10.6619 16.2024 10.4429L16.5284 10.3549L16.7084 11.0159C16.7504 11.1789 16.9194 11.2709 17.0814 11.2269C17.2434 11.1829 17.3374 11.0169 17.2924 10.8549L17.1144 10.1929L17.8294 9.99992L18.0094 10.6599C18.0514 10.8239 18.2224 10.9169 18.3844 10.8729C18.5464 10.8299 18.6414 10.6619 18.5974 10.4999L18.4194 9.83973L19.1344 9.64833L19.3134 10.3089C19.3564 10.4719 19.5254 10.5599 19.6874 10.5159C19.8484 10.4719 19.9444 10.3059 19.8994 10.1449L19.7204 9.48433L20.4384 9.29093L20.6144 9.95303C20.6574 10.1169 20.8264 10.2039 20.9874 10.1599C21.1494 10.1169 21.2454 9.95233 21.2004 9.79093L21.0224 9.13084L21.1444 9.11714ZM27.3683 9.13274L27.4873 9.56833L24.4213 10.4019L24.3043 9.96283L27.3683 9.13274ZM27.6473 10.1519L27.8603 10.9359L24.7943 11.7659L24.5813 10.9859L27.6473 10.1519ZM19.6474 11.2149C19.6314 11.2159 19.6154 11.2199 19.5994 11.2249C19.4704 11.2599 19.3944 11.3929 19.4294 11.5209C19.4634 11.6509 19.5964 11.7279 19.7264 11.6929C19.8574 11.6589 19.9354 11.5229 19.8974 11.3929C19.8844 11.3479 19.8594 11.3079 19.8234 11.2769C19.8124 11.2669 19.7994 11.2579 19.7864 11.2499C19.7444 11.2249 19.6964 11.2119 19.6474 11.2149ZM21.3954 11.6089C21.3754 11.6109 21.3554 11.6149 21.3354 11.6209C21.1704 11.6649 21.0684 11.8289 21.1014 11.9959L21.0994 11.9979C21.1004 12.0049 21.1024 12.0119 21.1044 12.0199C21.1534 12.1909 21.3314 12.2919 21.5034 12.2439C21.6754 12.1969 21.7764 12.0199 21.7294 11.8479C21.7124 11.7879 21.6784 11.7339 21.6324 11.6929H21.6364C21.6204 11.6789 21.6024 11.6649 21.5834 11.6539C21.5264 11.6209 21.4614 11.6049 21.3954 11.6089ZM17.4194 11.9569C17.4054 11.9579 17.3914 11.9609 17.3784 11.9649C17.2754 11.9949 17.2164 12.1019 17.2434 12.2049C17.2734 12.3099 17.3834 12.3699 17.4874 12.3399C17.5934 12.3119 17.6564 12.2029 17.6284 12.0979C17.6174 12.0609 17.5964 12.0289 17.5674 12.0039L17.5634 12.0099C17.5244 11.9729 17.4724 11.9539 17.4194 11.9569ZM15.5815 12.2399C15.5725 12.2409 15.5645 12.2419 15.5565 12.2439C15.4855 12.2629 15.4425 12.3329 15.4565 12.4039C15.4575 12.4079 15.4595 12.4109 15.4605 12.4139C15.4805 12.4859 15.5535 12.5299 15.6265 12.5119C15.6995 12.4919 15.7435 12.4169 15.7245 12.3439C15.7185 12.3169 15.7045 12.2919 15.6855 12.2729L15.6835 12.2749C15.6555 12.2499 15.6185 12.2379 15.5815 12.2399ZM18.9214 12.4939C18.9054 12.4949 18.8894 12.4979 18.8744 12.5019C18.7554 12.5339 18.6814 12.6519 18.7044 12.7729C18.7074 12.7779 18.7094 12.7829 18.7124 12.7869C18.7474 12.9119 18.8764 12.9839 19.0014 12.9489C19.1244 12.9149 19.1974 12.7879 19.1654 12.6639C19.1544 12.6199 19.1304 12.5799 19.0974 12.5489L19.0934 12.5529C19.0464 12.5109 18.9844 12.4899 18.9214 12.4939ZM16.3684 12.8009C16.3574 12.8009 16.3464 12.8029 16.3354 12.8069C16.2664 12.8249 16.2224 12.8939 16.2354 12.9649L16.2334 12.9689C16.2354 12.9709 16.2364 12.9729 16.2374 12.9749C16.2574 13.0479 16.3324 13.0909 16.4054 13.0719C16.4784 13.0529 16.5224 12.9779 16.5034 12.9039C16.4974 12.8779 16.4844 12.8549 16.4664 12.8359L16.4704 12.8339C16.4624 12.8279 16.4554 12.8229 16.4464 12.8179C16.4234 12.8049 16.3954 12.7989 16.3684 12.8009Z" fill="#333333"/>
</svg>

<?xml version="1.0" encoding="UTF-8" standalone="no"?>
<!-- Created with Inkscape (http://www.inkscape.org/) -->
<svg id="svg8" xmlns:rdf="http://www.w3.org/1999/02/22-rdf-syntax-ns#" xmlns="http://www.w3.org/2000/svg" xmlns:osb="http://www.openswatchbook.org/uri/2009/osb" height="48" width="48" version="1.1" xmlns:cc="http://creativecommons.org/ns#" viewBox="0 0 12.7 12.7" xmlns:dc="http://purl.org/dc/elements/1.1/">
 <title id="title4753">UIO-icon</title>
 <metadata id="metadata5">
  <rdf:RDF>
   <cc:Work rdf:about="">
    <dc:format>image/svg+xml</dc:format>
    <dc:type rdf:resource="http://purl.org/dc/dcmitype/StillImage"/>
    <dc:title>UIO-icon</dc:title>
    <dc:creator>
     <cc:Agent>
      <dc:title>Joaquín Urbano</dc:title>
     </cc:Agent>
    </dc:creator>
    <dc:rights>
     <cc:Agent>
      <dc:title>GPL</dc:title>
     </cc:Agent>
    </dc:rights>
   </cc:Work>
  </rdf:RDF>
 </metadata>
 <g id="layer1" transform="translate(0,-284.3)" fill="#333">
  <path id="path1975" d="m4 4v0.1543 1.5703 1.2754 24.641l21.172 11.375 1.023 0.783c0.142 0.108 0.151 0.12 0.256 0.201h17.549v-8.18c-0.517-0.372-0.948-0.542-1.467-0.578-0.184-0.013-1.182 0.096-2.219 0.242-2.905 0.408-2.784 0.444-5.566-1.627l-1.777-1.324-22.283-17.887-3.0239 0.655c-0.4771 0.103-0.9365-0.167-1.0313-0.606-0.0943-0.438 0.2122-0.873 0.6895-0.976l1.7382-0.377-1.6035-1.291c-2.1512-1.598-2.0449-1.186-2.2343-4.1682l0.039-3.8828-0.0058 0.0078v-0.0078h-0.25-1.0059zm0.5176 0.5176l0.2207 0.0078-0.0293 3.3613 0.1367 1.7988c0.0236 0.7655 0.4525 1.3665 1.0859 1.8845l1.9668 1.5-0.7265 0.164c-1.6047 0.213-1.4355 2.892 0.5332 2.584l2.8479-0.619 11.148 8.949 10.729 8.598 2.939 2.209 1.36 0.887c0.446 0.27 1.134 0.419 2.308 0.326l1.994-0.262 1.293-0.142c0.395-0.022 0.78 0.078 1.155 0.328l0.007 7.396-16.715-0.002-1.027-0.674c-0.207-0.173-0.413-0.326-0.613-0.4l-4.026-2.166-4.435-2.369-5.143-2.773-7.0133-3.776c0-3.973-0.0021-0.724 0.0019-4.695l0.002-22.115zm22.146 0.8457c-0.162 0.0434-0.256 0.2135-0.211 0.375l0.33 1.2265-1.324 0.3575-1.691 0.4589-7.864 2.129c-0.922 0.2498-1.513 1.1038-1.461 2.0198-0.043 0-0.097-0.001-0.14 0.009-0.313 0.085-0.505 0.369-0.504 0.678l-6.1056 1.654c-0.1623 0.044-0.2576 0.21-0.2129 0.372 0.0423 0.163 0.2135 0.251 0.375 0.207l6.0955-1.649c0.151 0.285 0.472 0.448 0.795 0.361 0.045-0.007 0.091-0.047 0.131-0.066 0.424 0.798 1.353 1.223 2.26 0.981l7.865-2.131 1.691-0.457 1.327-0.358 0.332 1.227c0.042 0.164 0.215 0.253 0.377 0.209 0.161-0.044 0.255-0.208 0.21-0.369l-0.332-1.229-0.371-1.3749 3.66-0.9902 0.182 0.6777c0.047 0.1824 0.219 0.2905 0.383 0.2442 0.162-0.0434 0.254-0.2244 0.205-0.4043l-0.857-3.1738c-0.015-0.0428-0.033-0.091-0.063-0.1211l-0.004 0.0058c-0.038-0.0522-0.086-0.0909-0.142-0.1133-0.057-0.0223-0.118-0.0291-0.178-0.0136-0.162 0.0438-0.254 0.2243-0.205 0.4043l0.24 0.8867-3.66 0.9902-0.426-1.5801-0.334-1.2285c-0.042-0.1637-0.215-0.2538-0.373-0.2148zm0.277 2.1836l0.272 1-3.068 0.832-0.272-1 3.068-0.832zm4.674 0.4375l0.119 0.4375-3.66 0.9902-0.119-0.4375 3.66-0.9902zm-8.326 0.5508l0.92 3.3888-1.25 0.338-1.451-3.2483 0.021-0.0039 0.196-0.0528 0.177 0.6602c0.043 0.1637 0.214 0.2512 0.375 0.207 0.162-0.0433 0.255-0.2072 0.211-0.3691l-0.177-0.6602 0.978-0.2597zm-2.144 0.582l1.449 3.2458-0.147 0.037-5.336 1.446c-0.807 0.218-1.63-0.254-1.849-1.061l-0.024-0.082-0.037-0.16-0.027-0.123-0.031-0.123c-0.219-0.807 0.253-1.635 1.06-1.854l0.326-0.088 0.18 0.661c0.042 0.163 0.211 0.255 0.373 0.211s0.256-0.21 0.211-0.372l-0.178-0.662 0.715-0.193 0.18 0.66c0.042 0.164 0.213 0.257 0.375 0.213 0.162-0.043 0.257-0.211 0.213-0.373l-0.178-0.6602 0.715-0.1914 0.179 0.6606c0.043 0.163 0.212 0.251 0.374 0.207 0.161-0.044 0.257-0.21 0.212-0.371l-0.179-0.6606 0.718-0.1934 0.176 0.6621c0.043 0.1639 0.212 0.2509 0.373 0.2069 0.162-0.043 0.258-0.2076 0.213-0.369l-0.178-0.6601 0.122-0.0137zm6.224 0.0156l0.119 0.4356-3.066 0.8336-0.117-0.4391 3.064-0.8301zm0.279 1.0192l0.213 0.784-3.066 0.83-0.213-0.78 3.066-0.834zm-8 1.063c-0.016 0.001-0.032 0.005-0.048 0.01-0.129 0.035-0.205 0.168-0.17 0.296 0.034 0.13 0.167 0.207 0.297 0.172 0.131-0.034 0.209-0.17 0.171-0.3-0.013-0.045-0.038-0.085-0.074-0.116-0.011-0.01-0.024-0.019-0.037-0.027-0.042-0.025-0.09-0.038-0.139-0.035zm1.748 0.394c-0.02 0.002-0.04 0.006-0.06 0.012-0.165 0.044-0.267 0.208-0.234 0.375l-0.002 0.002c0.001 0.007 0.003 0.014 0.005 0.022 0.049 0.171 0.227 0.272 0.399 0.224 0.172-0.047 0.273-0.224 0.226-0.396-0.017-0.06-0.051-0.114-0.097-0.155h0.004c-0.016-0.014-0.034-0.028-0.053-0.039-0.057-0.033-0.122-0.049-0.188-0.045zm-3.976 0.348c-0.014 0.001-0.028 0.004-0.041 0.008-0.103 0.03-0.162 0.137-0.135 0.24 0.03 0.105 0.14 0.165 0.244 0.135 0.106-0.028 0.169-0.137 0.141-0.242-0.011-0.037-0.032-0.069-0.061-0.094l-0.004 0.006c-0.039-0.037-0.091-0.056-0.144-0.053zm-1.838 0.283c-0.009 0.001-0.017 0.002-0.025 0.004-0.071 0.019-0.114 0.089-0.1 0.16 0.001 0.004 0.003 0.007 0.004 0.01 0.02 0.072 0.093 0.116 0.166 0.098 0.073-0.02 0.117-0.095 0.098-0.168-0.006-0.027-0.02-0.052-0.039-0.071l-0.002 0.002c-0.028-0.025-0.065-0.037-0.102-0.035zm3.34 0.254c-0.016 0.001-0.032 0.004-0.047 0.008-0.119 0.032-0.193 0.15-0.17 0.271 0.003 0.005 0.005 0.01 0.008 0.014 0.035 0.125 0.164 0.197 0.289 0.162 0.123-0.034 0.196-0.161 0.164-0.285-0.011-0.044-0.035-0.084-0.068-0.115l-0.004 0.004c-0.047-0.042-0.109-0.063-0.172-0.059zm-2.553 0.307c-0.011 0-0.022 0.002-0.033 0.006-0.069 0.018-0.113 0.087-0.1 0.158l-0.002 0.004c0.002 0.002 0.003 0.004 0.004 0.006 0.02 0.073 0.095 0.116 0.168 0.097s0.117-0.094 0.098-0.168c-0.006-0.026-0.019-0.049-0.037-0.068l0.004-0.002c-0.008-0.006-0.015-0.011-0.024-0.016-0.023-0.013-0.051-0.019-0.078-0.017z" transform="matrix(.26458 0 0 .26458 0 284.3)" stroke-width="3.7795"/>
 </g>
</svg>
